gama.ui.shared/icons_svg/dark/editor/reference.operators.svg

<?xml version="1.0" encoding="UTF-8" standalone="no"?>
<!DOCTYPE svg PUBLIC "-//W3C//DTD SVG 1.1//EN" "http://www.w3.org/Graphics/SVG/1.1/DTD/svg11.dtd">
<svg xmlns="http://www.w3.org/2000/svg" xmlns:xl="http://www.w3.org/1999/xlink" version="1.1" xmlns:dc="http://purl.org/dc/elements/1.1/" viewBox="-490.4827 -3263.748 25 25" width="25" height="25">
  <defs/>
  <g id="SOURCES" stroke-opacity="1" fill="none" stroke="none" fill-opacity="1" stroke-dasharray="none">
    <title>SOURCES</title>
    <g id="SOURCES_Dark">
      <title>Dark</title>
      <g id="Graphic_11439">
        <path d="M -486.1427 -3263.248 L -469.8227 -3263.248 C -467.70195 -3263.248 -465.9827 -3261.529 -465.9827 -3259.408 L -465.9827 -3243.088 C -465.9827 -3240.9673 -467.70195 -3239.248 -469.8227 -3239.248 L -486.1427 -3239.248 C -488.2635 -3239.248 -489.9827 -3240.9673 -489.9827 -3243.088 L -489.9827 -3259.408 C -489.9827 -3261.529 -488.2635 -3263.248 -486.1427 -3263.248 Z" fill="#666"/>
        <path d="M -486.1427 -3263.248 L -469.8227 -3263.248 C -467.70195 -3263.248 -465.9827 -3261.529 -465.9827 -3259.408 L -465.9827 -3243.088 C -465.9827 -3240.9673 -467.70195 -3239.248 -469.8227 -3239.248 L -486.1427 -3239.248 C -488.2635 -3239.248 -489.9827 -3240.9673 -489.9827 -3243.088 L -489.9827 -3259.408 C -489.9827 -3261.529 -488.2635 -3263.248 -486.1427 -3263.248 Z" stroke="white" stroke-linecap="round" stroke-linejoin="round" stroke-width=".25"/>
      </g>
      <g id="Graphic_11438">
        <path d="M -483.1827 -3258.448 C -483.4067 -3258.448 -483.5827 -3258.272 -483.5827 -3258.048 L -483.5827 -3255.648 C -483.5827 -3255.424 -483.4067 -3255.248 -483.1827 -3255.248 L -475.9827 -3255.248 C -475.7587 -3255.248 -475.5827 -3255.424 -475.5827 -3255.648 L -475.5827 -3258.048 C -475.5827 -3258.272 -475.7587 -3258.448 -475.9827 -3258.448 Z M -483.1827 -3259.248 L -475.9827 -3259.248 C -475.3187 -3259.248 -474.7827 -3258.712 -474.7827 -3258.048 L -474.7827 -3255.648 C -474.7827 -3254.984 -475.3187 -3254.448 -475.9827 -3254.448 L -483.1827 -3254.448 C -483.8467 -3254.448 -484.3827 -3254.984 -484.3827 -3255.648 L -484.3827 -3258.048 C -484.3827 -3258.712 -483.8467 -3259.248 -483.1827 -3259.248 Z M -482.3827 -3257.648 L -481.5827 -3257.648 C -481.3587 -3257.648 -481.1827 -3257.472 -481.1827 -3257.248 L -481.1827 -3256.448 C -481.1827 -3256.224 -481.3587 -3256.048 -481.5827 -3256.048 L -482.3827 -3256.048 C -482.6067 -3256.048 -482.7827 -3256.224 -482.7827 -3256.448 L -482.7827 -3257.248 C -482.7827 -3257.472 -482.6067 -3257.648 -482.3827 -3257.648 Z M -479.9827 -3257.648 L -479.1827 -3257.648 C -478.9587 -3257.648 -478.7827 -3257.472 -478.7827 -3257.248 L -478.7827 -3256.448 C -478.7827 -3256.224 -478.9587 -3256.048 -479.1827 -3256.048 L -479.9827 -3256.048 C -480.2067 -3256.048 -480.3827 -3256.224 -480.3827 -3256.448 L -480.3827 -3257.248 C -480.3827 -3257.472 -480.2067 -3257.648 -479.9827 -3257.648 Z M -473.9827 -3248.048 L -473.9827 -3248.848 L -475.9827 -3248.848 C -476.6467 -3248.848 -477.1827 -3249.384 -477.1827 -3250.048 L -477.1827 -3250.848 C -477.1827 -3251.512 -476.6467 -3252.048 -475.9827 -3252.048 L -473.9827 -3252.048 L -473.9827 -3252.448 C -473.9827 -3252.672 -474.1587 -3252.848 -474.3827 -3252.848 L -481.5827 -3252.848 C -481.8067 -3252.848 -481.9827 -3252.672 -481.9827 -3252.448 L -481.9827 -3252.048 L -479.9827 -3252.048 C -479.3187 -3252.048 -478.7827 -3251.512 -478.7827 -3250.848 L -478.7827 -3250.048 C -478.7827 -3249.384 -479.3187 -3248.848 -479.9827 -3248.848 L -484.7827 -3248.848 C -485.4467 -3248.848 -485.9827 -3249.384 -485.9827 -3250.048 L -485.9827 -3250.848 C -485.9827 -3251.512 -485.4467 -3252.048 -484.7827 -3252.048 L -482.7827 -3252.048 L -482.7827 -3252.448 C -482.7827 -3253.112 -482.2467 -3253.648 -481.5827 -3253.648 L -479.5827 -3253.648 L -479.5827 -3254.848 C -479.5827 -3255.072 -479.4067 -3255.248 -479.1827 -3255.248 C -478.9587 -3255.248 -478.7827 -3255.072 -478.7827 -3254.848 L -478.7827 -3253.648 L -474.3827 -3253.648 C -473.7187 -3253.648 -473.1827 -3253.112 -473.1827 -3252.448 L -473.1827 -3252.048 L -471.1827 -3252.048 C -470.5187 -3252.048 -469.9827 -3251.512 -469.9827 -3250.848 L -469.9827 -3250.048 C -469.9827 -3249.384 -470.5187 -3248.848 -471.1827 -3248.848 L -473.1827 -3248.848 L -473.1827 -3247.976 C -472.7187 -3247.808 -472.3827 -3247.368 -472.3827 -3246.848 L -472.3827 -3246.448 L -471.9827 -3246.448 C -471.3187 -3246.448 -470.7827 -3245.912 -470.7827 -3245.248 L -470.7827 -3244.448 C -470.7827 -3243.784 -471.3187 -3243.248 -471.9827 -3243.248 L -473.5827 -3243.248 C -474.2467 -3243.248 -474.7827 -3243.784 -474.7827 -3244.448 L -474.7827 -3245.248 C -474.7827 -3245.912 -474.2467 -3246.448 -473.5827 -3246.448 L -473.1827 -3246.448 L -473.1827 -3246.848 C -473.1827 -3247.072 -473.3587 -3247.248 -473.5827 -3247.248 L -477.9827 -3247.248 L -477.9827 -3246.448 L -477.5827 -3246.448 C -476.9187 -3246.448 -476.3827 -3245.912 -476.3827 -3245.248 L -476.3827 -3244.448 C -476.3827 -3243.784 -476.9187 -3243.248 -477.5827 -3243.248 L -479.1827 -3243.248 C -479.8467 -3243.248 -480.3827 -3243.784 -480.3827 -3244.448 L -480.3827 -3245.248 C -480.3827 -3245.912 -479.8467 -3246.448 -479.1827 -3246.448 L -478.7827 -3246.448 L -478.7827 -3247.248 L -483.1827 -3247.248 C -483.4067 -3247.248 -483.5827 -3247.072 -483.5827 -3246.848 L -483.5827 -3246.448 L -483.1827 -3246.448 C -482.5187 -3246.448 -481.9827 -3245.912 -481.9827 -3245.248 L -481.9827 -3244.448 C -481.9827 -3243.784 -482.5187 -3243.248 -483.1827 -3243.248 L -484.7827 -3243.248 C -485.4467 -3243.248 -485.9827 -3243.784 -485.9827 -3244.448 L -485.9827 -3245.248 C -485.9827 -3245.912 -485.4467 -3246.448 -484.7827 -3246.448 L -484.3827 -3246.448 L -484.3827 -3246.848 C -484.3827 -3247.512 -483.8467 -3248.048 -483.1827 -3248.048 Z M -477.5827 -3257.648 L -476.7827 -3257.648 C -476.5587 -3257.648 -476.3827 -3257.472 -476.3827 -3257.248 L -476.3827 -3256.448 C -476.3827 -3256.224 -476.5587 -3256.048 -476.7827 -3256.048 L -477.5827 -3256.048 C -477.8067 -3256.048 -477.9827 -3256.224 -477.9827 -3256.448 L -477.9827 -3257.248 C -477.9827 -3257.472 -477.8067 -3257.648 -477.5827 -3257.648 Z M -475.9827 -3251.248 C -476.2067 -3251.248 -476.3827 -3251.072 -476.3827 -3250.848 L -476.3827 -3250.048 C -476.3827 -3249.824 -476.2067 -3249.648 -475.9827 -3249.648 L -471.1827 -3249.648 C -470.9587 -3249.648 -470.7827 -3249.824 -470.7827 -3250.048 L -470.7827 -3250.848 C -470.7827 -3251.072 -470.9587 -3251.248 -471.1827 -3251.248 Z M -484.7827 -3251.248 C -485.0067 -3251.248 -485.1827 -3251.072 -485.1827 -3250.848 L -485.1827 -3250.048 C -485.1827 -3249.824 -485.0067 -3249.648 -484.7827 -3249.648 L -479.9827 -3249.648 C -479.7587 -3249.648 -479.5827 -3249.824 -479.5827 -3250.048 L -479.5827 -3250.848 C -479.5827 -3251.072 -479.7587 -3251.248 -479.9827 -3251.248 Z M -484.7827 -3245.648 C -485.0067 -3245.648 -485.1827 -3245.472 -485.1827 -3245.248 L -485.1827 -3244.448 C -485.1827 -3244.224 -485.0067 -3244.048 -484.7827 -3244.048 L -483.1827 -3244.048 C -482.9587 -3244.048 -482.7827 -3244.224 -482.7827 -3244.448 L -482.7827 -3245.248 C -482.7827 -3245.472 -482.9587 -3245.648 -483.1827 -3245.648 Z M -479.1827 -3245.648 C -479.4067 -3245.648 -479.5827 -3245.472 -479.5827 -3245.248 L -479.5827 -3244.448 C -479.5827 -3244.224 -479.4067 -3244.048 -479.1827 -3244.048 L -477.5827 -3244.048 C -477.3587 -3244.048 -477.1827 -3244.224 -477.1827 -3244.448 L -477.1827 -3245.248 C -477.1827 -3245.472 -477.3587 -3245.648 -477.5827 -3245.648 Z M -473.5827 -3245.648 C -473.8067 -3245.648 -473.9827 -3245.472 -473.9827 -3245.248 L -473.9827 -3244.448 C -473.9827 -3244.224 -473.8067 -3244.048 -473.5827 -3244.048 L -471.9827 -3244.048 C -471.7587 -3244.048 -471.5827 -3244.224 -471.5827 -3244.448 L -471.5827 -3245.248 C -471.5827 -3245.472 -471.7587 -3245.648 -471.9827 -3245.648 Z" fill="#8eed62"/>
      </g>
    </g>
  </g>
</svg>

<svg height="25" viewBox="-490.483 -3263.748 25 25" width="25" xmlns="http://www.w3.org/2000/svg"><g fill="none"><path d="m-486.1427-3263.248h16.32c2.12075 0 3.84 1.719 3.84 3.84v16.32c0 2.1207-1.71925 3.84-3.84 3.84h-16.32c-2.1208 0-3.84-1.7193-3.84-3.84v-16.32c0-2.121 1.7192-3.84 3.84-3.84z" fill="#666"/><path d="m-486.1427-3263.248h16.32c2.12075 0 3.84 1.719 3.84 3.84v16.32c0 2.1207-1.71925 3.84-3.84 3.84h-16.32c-2.1208 0-3.84-1.7193-3.84-3.84v-16.32c0-2.121 1.7192-3.84 3.84-3.84z" stroke="#fff" stroke-linecap="round" stroke-linejoin="round" stroke-width=".25"/><path d="m-483.1827-3258.448c-.224 0-.4.176-.4.4v2.4c0 .224.176.4.4.4h7.2c.224 0 .4-.176.4-.4v-2.4c0-.224-.176-.4-.4-.4zm0-.8h7.2c.664 0 1.2.536 1.2 1.2v2.4c0 .664-.536 1.2-1.2 1.2h-7.2c-.664 0-1.2-.536-1.2-1.2v-2.4c0-.664.536-1.2 1.2-1.2zm.8 1.6h.8c.224 0 .4.176.4.4v.8c0 .224-.176.4-.4.4h-.8c-.224 0-.4-.176-.4-.4v-.8c0-.224.176-.4.4-.4zm2.4 0h.8c.224 0 .4.176.4.4v.8c0 .224-.176.4-.4.4h-.8c-.224 0-.4-.176-.4-.4v-.8c0-.224.176-.4.4-.4zm6 9.6v-.8h-2c-.664 0-1.2-.536-1.2-1.2v-.8c0-.664.536-1.2 1.2-1.2h2v-.4c0-.224-.176-.4-.4-.4h-7.2c-.224 0-.4.176-.4.4v.4h2c.664 0 1.2.536 1.2 1.2v.8c0 .664-.536 1.2-1.2 1.2h-4.8c-.664 0-1.2-.536-1.2-1.2v-.8c0-.664.536-1.2 1.2-1.2h2v-.4c0-.664.536-1.2 1.2-1.2h2v-1.2c0-.224.176-.4.4-.4s.4.176.4.4v1.2h4.4c.664 0 1.2.536 1.2 1.2v.4h2c.664 0 1.2.536 1.2 1.2v.8c0 .664-.536 1.2-1.2 1.2h-2v.872c.464.168.8.608.8 1.128v.4h.4c.664 0 1.2.536 1.2 1.2v.8c0 .664-.536 1.2-1.2 1.2h-1.6c-.664 0-1.2-.536-1.2-1.2v-.8c0-.664.536-1.2 1.2-1.2h.4v-.4c0-.224-.176-.4-.4-.4h-4.4v.8h.4c.664 0 1.2.536 1.2 1.2v.8c0 .664-.536 1.2-1.2 1.2h-1.6c-.664 0-1.2-.536-1.2-1.2v-.8c0-.664.536-1.2 1.2-1.2h.4v-.8h-4.4c-.224 0-.4.176-.4.4v.4h.4c.664 0 1.2.536 1.2 1.2v.8c0 .664-.536 1.2-1.2 1.2h-1.6c-.664 0-1.2-.536-1.2-1.2v-.8c0-.664.536-1.2 1.2-1.2h.4v-.4c0-.664.536-1.2 1.2-1.2zm-3.6-9.6h.8c.224 0 .4.176.4.4v.8c0 .224-.176.4-.4.4h-.8c-.224 0-.4-.176-.4-.4v-.8c0-.224.176-.4.4-.4zm1.6 6.4c-.224 0-.4.176-.4.4v.8c0 .224.176.4.4.4h4.8c.224 0 .4-.176.4-.4v-.8c0-.224-.176-.4-.4-.4zm-8.8 0c-.224 0-.4.176-.4.4v.8c0 .224.176.4.4.4h4.8c.224 0 .4-.176.4-.4v-.8c0-.224-.176-.4-.4-.4zm0 5.6c-.224 0-.4.176-.4.4v.8c0 .224.176.4.4.4h1.6c.224 0 .4-.176.4-.4v-.8c0-.224-.176-.4-.4-.4zm5.6 0c-.224 0-.4.176-.4.4v.8c0 .224.176.4.4.4h1.6c.224 0 .4-.176.4-.4v-.8c0-.224-.176-.4-.4-.4zm5.6 0c-.224 0-.4.176-.4.4v.8c0 .224.176.4.4.4h1.6c.224 0 .4-.176.4-.4v-.8c0-.224-.176-.4-.4-.4z" fill="#8eed62"/></g></svg>
